res/icons/mtt/mtt_file.svg

<svg viewBox="0 0 16 16" xmlns="http://www.w3.org/2000/svg">
	<g fill-rule="evenodd">
		<polygon points="7 1 3 5 7 5" fill="#9aa7b0" fill-opacity=".8"/>
		<polygon points="8 1 8 6 3 6 3 8 13 8 13 1" fill="#9aa7b0" fill-opacity=".8"/>
		<polygon points="1 16 16 16 16 9 1 9" fill="#00766c" fill-opacity=".7"/>
	</g>
	<path d="m2 10v5h0.83333v-4l1.1667 3h1l1.1667-3v4h0.83333v-5h-1.5212l-0.97883 3-0.96517-3z" fill-opacity=".93048" opacity=".85"/>
	<path d="m8 10v1h1v4h1v-4h1v-1h-3" opacity=".85"/>
	<path d="m12 10v1h1v4h1v-4h1v-1h-3" opacity=".85"/>
</svg>

<svg height="16" viewBox="0 0 16 16" width="16" xmlns="http://www.w3.org/2000/svg">
	<g fill="none" fill-rule="evenodd">
		<polygon fill-opacity=".8" fill="#9aa7b0" points="7,1 3,5 7,5"/>
		<polygon fill-opacity=".8" fill="#9aa7b0" points="8,1 8,6 3,6 3,8 13,8 13,1"/>
		<polygon fill-opacity=".7" fill="#00766c" points="1,16 16,16 16,9 1,9"/>
	</g>
	<path
		style="opacity:0.85;fill:#000000;fill-opacity:0.93048126;stroke:none;stroke-width:0.91287094px;stroke-linecap:butt;stroke-linejoin:miter;stroke-opacity:1"
		d="m 2,10 v 5 H 2.8333333 V 11 L 4,14 h 1 l 1.1666667,-3 v 4 H 7 V 10 H 5.4788335 L 4.5,13 3.5348332,10 Z"/>
	<path
		style="opacity:0.85;fill:#000000;fill-opacity:1;stroke:none;stroke-width:1px;stroke-linecap:butt;stroke-linejoin:miter;stroke-opacity:1"
		d="m 8,10 v 1 h 1 v 4 h 1 v -4 h 1 V 10 H 8 v 0"/>
	<path
		style="opacity:0.85;fill:#000000;fill-opacity:1;stroke:none;stroke-width:1px;stroke-linecap:butt;stroke-linejoin:miter;stroke-opacity:1"
		d="m 12,10 v 1 h 1 v 4 h 1 v -4 h 1 v -1 h -3 v 0"/>
</svg>
